X:1
T:The Dancing Bear
C: Bob McQuillen  2/22/78
R: reel
M: C|
L:1/8
K: Em
|: "Em"EFGF EFGF | EFGA G2E2 | "A"EFGF EFGF | EFGA G2E2 |
"Em"EFGF EFGF | EFGA B2e2 | "B7"B2Bc BAGF | "Em"G2E2 E4 :|
|: "Em"e2ef gfef | gfe2 e4 | "A"[^c2e2]ef gfef | gfe2 e4 |
 "C"[c2e2]ef gfef | gfe2 e2dc | "B7"BABc BcBA | "Em"GFE2 E4 :|
